!!!!SEGMENT: pl-kozmzk--mzk-m-159--019_walczynski-franciszek--praeludia-organi-op-5-maestoso.krn
!!!cenid: 18xx:2762
!!!COM: Walczyński, Franciszek
!!!COM-rismID: pe30021989
!!!CDT: ~1852-1937
!!!CNT: Polish
!!!GTL: Praeludia organi op. 5
!!!OTL: 19. Maestoso
!!!PDT: 1894
!!!AGN: Secular; Prelude
!!!SMS-siglum: PL-KOZmzk
!!!SMS-shelfmark: mzk/m/159
!!!SMS-shelfwork: 019 G
!!!SMS-variant:
!!!SMS-altvar:
!!!NIFC-rismSourceID: 1001116720
!!!NIFC-islandoraID: pl-kozmzk:2265
!!!URL-pdf-islandora: https://repozytorium.nifc.pl/islandora/object/pl-kozmzk%3A2265/datastream/PDF/view
!!!URL-scan: https://polish.musicsources.pl/pl/lokalizacje/galeria/druki-muzyczne/7406 @EN{Scan on Polish Music Sources Website} @PL{Skany w portalu Dziedzictwo Muzyki Polskiej w otwartym dostępie}
!!!ONB-nifc: UWAGA: numeracja plików zgodna z numeracją źrodłową
!!!OMD: 19. Maestoso.
!!!AIN: 1 empty 1 organ
!!!key:
**kern	**kern	**dynam
*part2	*part1	*part1
*staff2	*staff1	*
*Iempty	*Iorgan	*
*	*I"[Organo]	*
*clefF4	*clefG2	*
*k[f#c#]	*k[f#c#]	*
*e:	*e:	*
*M3/4	*M3/4	*
=1	=1	=1
*^	*^	*
!	!	!	!	!LO:DY:b=2:rj
2.r	(8D\L	2.rg	2.r	p
.	8C#\	.	.	.
.	8D\	.	.	.
.	8C#\J	.	.	.
.	4BB\	.	.	.
=2	=2	=2	=2	=2
2.r	4C#\	2.rg	2.r	.
.	4BB\	.	.	.
.	4AA#X\)	.	.	.
=3	=3	=3	=3	=3
(8d/L	(4.BB\	2.rg	2.r	.
8c#/	.	.	.	.
8d/	.	.	.	.
8c#/J	8C#\	.	.	.
4B/	4D\	.	.	.
=4	=4	=4	=4	=4
4c#/	4E\	2.rg	2.r	.
4B/	4E#X\	.	.	.
4A#X/)	8F#\L	.	.	.
.	8En\J)	.	.	.
=5	=5	=5	=5	=5
(4B/	(4D\	2.rg	2.r	.
4d/	4BB\	.	.	.
4c#/)	4E\)	.	.	.
=6	=6	=6	=6	=6
(4A#/	(8F#\L	2.rg	2.r	.
.	8E\J	.	.	.
8B/L	8D\L	.	.	.
8c#/	8AA#X\	.	.	.
8d/	8BB\	.	.	.
8e/J)	8C#\J)	.	.	.
=7	=7	=7	=7	=7
!	!	!LO:TX:t=P:problem=pf się nie wyświetla	!	!LO:DY:a
(8A/L	(2.D\	2.r	(8f#\L	pf
8G/	.	.	8e\	.
8A/	.	.	8f#\	.
8G/J	.	.	8e\J	.
4F#/	.	.	4d\	.
=8	=8	=8	=8	=8
4G/	4AA#X\	2.r	4e\	.
8F#/L	4BB\	.	4d\	.
8G#X/J	.	.	.	.
8A/L	4AAn\)	.	4c#\)	.
8Gn/J)	.	.	.	.
!!LO:LB:g=original
=9	=9	=9	=9	=9
!	!	!	!	!LO:HP:b=2
(8F#/L	(8BB\L	(8dd/L	(8d\L	f <
8A#X/	8C#\	8cc#/	8e\	.
8B/	8BB\	8dd/	8f#\	.
8A#/J	8F#\J	8cc#/J	8e\J	.
4B/	4G\	4b/	4d\	[[
=10	=10	=10	=10	=10
!	!	!	!	!LO:HP:b=2
8B/L	4E\	4cc#/	4g\	>
8c#/J	.	.	.	.
4d/	4E#X\	4b/	4g#X\	.
4c#/)	8F#\L	4a#X/)	4f#\)	]
.	8En\J)	.	.	.
=11	=11	=11	=11	=11
4B/	(4D\	(4b/	4f#\	p
4f#/	4BB\	4dd/	4b\	.
4e/	4E\	4cc#/	4g\	.
=12	=12	=12	=12	=12
(8e/L	4F#\	4a#X/	4f#\	.
16d/L	.	.	.	.
16c#/JJ	.	.	.	.
8d/L	2BB\)	2b/)	2f#\	.
8c#/	.	.	.	.
8d/	.	.	.	.
8B/J	.	.	.	.
=13	=13	=13	=13	=13
!LO:TX:b:i:t=Ped.	!	!	!	!LO:DY:a
4An/	[2.BB\	(4b/	8d#X\L	fp
.	.	.	16e\L	.
.	.	.	16f#\JJ	.
!	!	!	!	!
2G/)	.	8ccn/L	[2e\	.
.	.	8b/	.	.
.	.	8a#X/	.	.
.	.	8b/J	.	.
=14	=14	=14	=14	=14
(8cn/L	2.BB\_	2f#/	4e\]	p >
16B/L	.	.	.	.
16A#X/JJ	.	.	.	.
8B/L	.	.	4d#X\	.
8An/	.	.	.	.
8G/	.	4g/)	4e\	.
8E/J)	.	.	.	.
=15	=15	=15	=15	=15
(8E/L	2.BB\_	((4g/	[4c#\	]
16D#X/L	.	.	.	.
16E/JJ	.	.	.	.
!LO:TX:b:i:t=rit. molto	!	!	!	!
8G/L	.	8e/L)	8c#\L]	.
8G/	.	8e/	8c#\	.
8F#/	.	8f#/	8d#X\	.
8E/J	.	8g/J	8e\J	.
=16	=16	=16	=16	=16
2.B/)	2.BB;\]	2.f#;/)	2.d#\	pp
*v	*v	*	*	*
*	*v	*v	*
==	==	==
*-	*-	*-
!!!system-decoration: {(s1,s2)}
!!!EED: Andrzej Borzym
!!!EEV: 2021-08-08
!!!ENC: Katarzyna Serwa
!!!END: 2021-07-26
!!!YEC: Copyright 2022 Narodowy Instytut Fryderyka Chopina (https://polishscores.org)
!!!YEM: Licence CC BY 4.0 (https://creativecommons.org/licenses/by/4.0)
